svgs/duotone/phone-intercom.svg

<svg xmlns="http://www.w3.org/2000/svg" viewBox="0 0 512 512"><!--! Font Awesome Pro 6.3.0 by @fontawesome - https://fontawesome.com License - https://fontawesome.com/license (Commercial License) Copyright 2023 Fonticons, Inc. --><defs><style>.fa-secondary{opacity:.4}</style></defs><path class="fa-primary" d="M80 32h-32C21.5 32 0 53.5 0 80v352C0 458.5 21.5 480 48 480h32C106.5 480 128 458.5 128 432v-352C128 53.5 106.5 32 80 32zM368 352h64c8.832 0 16-7.168 16-16S440.8 320 432 320h-64c-8.832 0-16 7.168-16 16S359.2 352 368 352zM432 384h-64c-8.832 0-16 7.168-16 16s7.168 16 16 16h64c8.832 0 16-7.168 16-16S440.8 384 432 384z"/><path class="fa-secondary" d="M448 32H224C188.6 32 160 60.64 160 96v320c0 35.36 28.64 64 64 64h224c35.36 0 64-28.64 64-64V96C512 60.64 483.4 32 448 32zM272 416C245.5 416 224 394.5 224 368S245.5 320 272 320s48 21.5 48 48S298.5 416 272 416zM432 416h-64c-8.832 0-16-7.168-16-16s7.168-16 16-16h64c8.832 0 16 7.168 16 16S440.8 416 432 416zM432 352h-64c-8.832 0-16-7.168-16-16s7.168-16 16-16h64c8.832 0 16 7.168 16 16S440.8 352 432 352zM448 256H224V96h224V256z"/></svg>

<svg xmlns="http://www.w3.org/2000/svg" viewBox="0 0 512 512"><!--! Font Awesome Pro 6.4.0 by @fontawesome - https://fontawesome.com License - https://fontawesome.com/license (Commercial License) Copyright 2023 Fonticons, Inc. --><defs><style>.fa-secondary{opacity:.4}</style></defs><path class="fa-primary" d="M48 32C21.5 32 0 53.5 0 80V432c0 26.5 21.5 48 48 48H80c26.5 0 48-21.5 48-48V80c0-26.5-21.5-48-48-48H48zM368 320c-8.8 0-16 7.2-16 16s7.2 16 16 16h64c8.8 0 16-7.2 16-16s-7.2-16-16-16H368zm0 64c-8.8 0-16 7.2-16 16s7.2 16 16 16h64c8.8 0 16-7.2 16-16s-7.2-16-16-16H368z"/><path class="fa-secondary" d="M224 32c-35.3 0-64 28.7-64 64V416c0 35.3 28.7 64 64 64H448c35.3 0 64-28.7 64-64V96c0-35.3-28.7-64-64-64H224zm48 288a48 48 0 1 1 0 96 48 48 0 1 1 0-96zm80 16c0-8.8 7.2-16 16-16h64c8.8 0 16 7.2 16 16s-7.2 16-16 16H368c-8.8 0-16-7.2-16-16zm0 64c0-8.8 7.2-16 16-16h64c8.8 0 16 7.2 16 16s-7.2 16-16 16H368c-8.8 0-16-7.2-16-16zM256 96H416c17.7 0 32 14.3 32 32v96c0 17.7-14.3 32-32 32H256c-17.7 0-32-14.3-32-32V128c0-17.7 14.3-32 32-32z"/></svg>
